sites/OJJO/images/imagescontact/mail.svg

<svg width="20" height="20" viewBox="0 0 20 20" fill="none" xmlns="http://www.w3.org/2000/svg">
<path d="M17.1886 4.03784H2.811C2.67544 4.038 2.54548 4.09194 2.44964 4.18782C2.3538 4.28369 2.29991 4.41368 2.2998 4.54924V5.57804C2.2998 5.62544 2.3512 5.67984 2.3932 5.70184L9.9504 10.0184C9.96976 10.0295 9.99171 10.0352 10.014 10.035C10.0368 10.0351 10.0592 10.029 10.0788 10.0174L17.4076 5.70604C17.4488 5.68304 17.558 5.62224 17.599 5.59424C17.6486 5.56044 17.6998 5.52984 17.6998 5.46924V4.54904C17.6996 4.41351 17.6457 4.28358 17.5499 4.18774C17.4541 4.09191 17.3241 4.038 17.1886 4.03784Z" fill="#333333"/>
<path d="M17.6365 7.12922C17.6169 7.118 17.5946 7.11217 17.5719 7.11231C17.5493 7.11245 17.5271 7.11856 17.5075 7.13002L13.3601 9.57022C13.3436 9.57985 13.3295 9.59308 13.3187 9.60892C13.308 9.62477 13.301 9.64282 13.2982 9.66174C13.2954 9.68067 13.297 9.69997 13.3027 9.71823C13.3083 9.73649 13.3181 9.75324 13.3311 9.76722L17.4791 14.2386C17.491 14.2515 17.5055 14.2618 17.5215 14.2688C17.5376 14.2759 17.555 14.2795 17.5725 14.2794C17.6064 14.2794 17.6389 14.2659 17.6628 14.2419C17.6868 14.218 17.7003 14.1855 17.7003 14.1516V7.24022C17.7004 7.21774 17.6946 7.19563 17.6834 7.17614C17.6722 7.15665 17.656 7.14046 17.6365 7.12922Z" fill="#333333"/>
<path d="M12.1648 10.3897C12.1451 10.3682 12.1186 10.3542 12.0898 10.3499C12.061 10.3456 12.0316 10.3513 12.0066 10.3661L10.3442 11.3443C10.2468 11.4006 10.1364 11.4305 10.0239 11.4313C9.91142 11.432 9.80068 11.4035 9.70255 11.3485L8.23955 10.5127C8.21593 10.4992 8.18865 10.4936 8.16164 10.4967C8.13464 10.4998 8.10932 10.5114 8.08935 10.5299L2.53375 15.6831C2.51919 15.6967 2.508 15.7135 2.5011 15.7322C2.49419 15.7509 2.49174 15.771 2.49396 15.7908C2.49617 15.8106 2.50298 15.8296 2.51385 15.8464C2.52472 15.8631 2.53934 15.877 2.55655 15.8871C2.64295 15.9379 2.72635 15.9621 2.81115 15.9621H17.0418C17.0667 15.9621 17.091 15.9549 17.1118 15.9412C17.1326 15.9275 17.1489 15.908 17.1588 15.8851C17.1687 15.8623 17.1718 15.8371 17.1676 15.8126C17.1634 15.7881 17.1521 15.7654 17.1352 15.7473L12.1648 10.3897Z" fill="#333333"/>
<path d="M6.86661 9.92028C6.88132 9.90668 6.89263 9.88981 6.89962 9.87102C6.90661 9.85224 6.90909 9.83208 6.90685 9.81217C6.90461 9.79225 6.89772 9.77314 6.88673 9.75638C6.87575 9.73962 6.86097 9.72568 6.84361 9.71568L2.49041 7.22928C2.47098 7.21825 2.449 7.21252 2.42666 7.21265C2.40432 7.21278 2.3824 7.21877 2.36311 7.23003C2.34381 7.24129 2.32781 7.25742 2.3167 7.2768C2.30559 7.29618 2.29977 7.31814 2.29981 7.34048V13.8645C2.29967 13.8894 2.30683 13.9138 2.32043 13.9347C2.33402 13.9556 2.35343 13.972 2.37627 13.982C2.39911 13.9919 2.42437 13.995 2.44892 13.9907C2.47347 13.9865 2.49624 13.9751 2.51441 13.9581L6.86661 9.92028Z" fill="#333333"/>
</svg>

<svg width="20" height="20" fill="none" xmlns="http://www.w3.org/2000/svg"><path d="M17.189 4.038H2.81a.512.512 0 0 0-.511.511v1.029c0 .047.051.102.093.124l7.557 4.316c.02.011.042.017.064.017a.126.126 0 0 0 .065-.018l7.329-4.311c.04-.023.15-.084.191-.112.05-.034.1-.064.1-.125v-.92a.512.512 0 0 0-.51-.511ZM17.637 7.13a.128.128 0 0 0-.13 0L13.36 9.57a.129.129 0 0 0-.062.092.127.127 0 0 0 .033.105l4.148 4.472a.127.127 0 0 0 .184.003.127.127 0 0 0 .037-.09V7.24a.127.127 0 0 0-.063-.11ZM12.165 10.39a.127.127 0 0 0-.158-.024l-1.663.978a.65.65 0 0 1-.641.005l-1.463-.836a.128.128 0 0 0-.15.017l-5.556 5.153a.128.128 0 0 0 .023.204c.086.05.17.075.254.075h14.23a.127.127 0 0 0 .127-.15.127.127 0 0 0-.033-.065l-4.97-5.357ZM6.867 9.92a.128.128 0 0 0-.023-.204L2.49 7.229a.128.128 0 0 0-.19.111v6.524a.127.127 0 0 0 .214.094L6.867 9.92Z" fill="#333"/></svg>
